build/img/sprites/hr.svg

<svg width="84" height="85" viewBox="0 0 84 85" fill="none" xmlns="http://www.w3.org/2000/svg">
<path d="M39.2421 0.252192C36.0116 1.12392 33.4648 3.72201 32.6272 7.02091C32.2512 8.43961 32.3879 10.9522 32.8836 12.3538C33.7895 14.9178 35.9603 17.0714 38.5413 17.9603C40.1138 18.5072 43.276 18.5072 44.7631 17.9603C48.3013 16.6441 50.5917 13.5503 50.7968 9.80703C50.9164 7.85845 50.66 6.66196 49.8054 4.95269C48.6602 2.64517 46.4723 0.901714 43.9084 0.235098C42.6777 -0.0896645 40.4557 -0.0725708 39.2421 0.252192ZM44.1477 3.08958C45.5151 3.60237 47.2244 5.31164 47.7714 6.73034C48.2671 8.01229 48.3183 10.2514 47.8739 11.4308C47.1902 13.2598 45.669 14.781 43.84 15.4647C42.7632 15.8749 40.5753 15.8749 39.4301 15.4818C37.6183 14.8494 35.9774 13.1914 35.345 11.3625C34.9006 10.0976 34.9518 8.04648 35.4475 6.76452C36.1825 4.86723 38.2336 3.14086 40.2506 2.71354C41.3103 2.49134 42.9854 2.66227 44.1477 3.08958Z" fill="#4988D1"/>
<path d="M6.98723 0.833374C1.46628 1.61964 -1.59332 7.39698 0.850938 12.3881C2.85079 16.4732 7.92733 18.097 11.9099 15.9262L12.7475 15.4647L18.4735 21.1908L24.1825 26.8998V40.3347C24.1825 54.966 24.1483 54.4191 25.1397 55.9403L25.5841 56.6069L19.1914 62.9996L12.7988 69.3923L11.4655 68.7599C10.3203 68.2129 9.94427 68.1274 8.54267 68.042C6.61119 67.9394 5.14121 68.3326 3.56868 69.341C-0.567758 72.0246 -1.1831 78.2122 2.3551 81.7504C4.97029 84.3655 9.31184 84.8612 12.3714 82.8956C15.9267 80.6051 17.1403 76.0756 15.1917 72.2468L14.7473 71.3751L21.3109 64.8286L27.8574 58.2649L28.695 58.5213C29.1736 58.6752 30.2162 58.7777 31.1393 58.7777H32.7289V69.7C32.7289 82.1777 32.6776 81.7333 34.1305 83.3058C35.1902 84.4681 36.3525 84.998 37.8567 84.998C39.207 84.998 40.0275 84.7416 41.0359 83.9724L41.8051 83.3742L42.4034 83.904C43.3264 84.7074 44.1126 84.9809 45.5484 84.998C46.6253 85.0151 46.9842 84.9296 47.8047 84.5365C48.9499 83.9724 50.0096 82.8443 50.4369 81.7162C50.7275 80.9812 50.7617 80.0069 50.813 69.7513L50.8643 58.6068H52.7103C53.7187 58.6068 54.8127 58.5213 55.1203 58.4188L55.6673 58.2137L62.2138 64.7602L68.7603 71.3067L68.4356 71.8366C67.0511 74.0757 67.1023 77.8703 68.5552 80.1607C72.3156 86.1261 81.4602 84.7929 83.2379 78.007C84.742 72.2297 78.9818 66.5891 73.1532 68.0933C72.6062 68.2471 71.7858 68.5719 71.3242 68.8112L70.4867 69.2727L64.0427 62.8287C58.009 56.795 57.633 56.3847 57.8894 56.0942C58.0432 55.9232 58.3338 55.4446 58.556 55.0173L58.9662 54.2481L59.0517 40.4543L59.1371 26.6434L64.7777 21.0028L70.4354 15.3451L71.7687 15.9775C72.9139 16.5245 73.2899 16.61 74.6915 16.6954C76.6572 16.798 78.1442 16.3878 79.7168 15.3451C85.3745 11.5676 83.8532 2.6623 77.2554 0.901749C75.2214 0.354774 72.5891 0.74791 70.8627 1.84184C67.3075 4.13227 66.0939 8.66184 68.0424 12.4906L68.4869 13.3623L63.4103 18.4218L58.3509 23.4812L57.9919 22.9685C56.898 21.4472 55.4622 20.5584 53.6675 20.302C52.0437 20.0627 46.7449 20.114 46.2321 20.3704C45.9586 20.5071 45.0356 21.8061 43.7537 23.8573C42.6256 25.6691 41.6684 27.1562 41.6171 27.1562C41.5658 27.1562 40.6599 25.7717 39.5831 24.0624C38.5062 22.3702 37.4465 20.8319 37.2072 20.6438C36.814 20.3533 36.4893 20.3191 33.4126 20.3191C31.5666 20.3191 29.618 20.4045 29.071 20.5071C27.772 20.7806 26.49 21.5839 25.6354 22.6608C25.2594 23.1394 24.9175 23.5496 24.8662 23.5496C24.8149 23.5667 22.5074 21.2934 19.7555 18.5414L14.7131 13.4991L15.1746 12.6615C18.3026 6.91839 13.4654 -0.0725403 6.98723 0.833374ZM9.77334 3.67077C10.9527 4.0639 11.927 4.79889 12.5424 5.73899C14.9183 9.32846 12.4398 14.1657 8.2179 14.1999C6.55991 14.1999 5.50016 13.7726 4.33785 12.6444C2.79951 11.1232 2.30382 9.243 2.90207 7.20896C3.73961 4.37157 6.95304 2.71358 9.77334 3.67077ZM77.5631 3.97844C81.2209 5.75608 81.6141 11.0719 78.2468 13.294C74.6573 15.687 69.8201 13.2085 69.7859 8.96951C69.7859 7.37989 70.1961 6.28596 71.2559 5.17493C72.4695 3.87588 73.7172 3.3631 75.4094 3.44856C76.2982 3.49984 76.8965 3.63658 77.5631 3.97844ZM38.1815 26.9169C39.6514 29.2244 40.7966 30.8482 41.0359 30.9508C41.8906 31.3439 42.1299 31.1046 44.7622 26.9852L47.2919 23.0539H50.4711C53.9409 23.0539 54.5734 23.1907 55.4109 24.0966C56.351 25.1221 56.3168 24.6606 56.3168 39.5142V53.2568L55.9237 54.0089C55.7015 54.4191 55.1887 54.9831 54.7956 55.2737C54.1119 55.7523 53.9409 55.7865 52.283 55.8378L50.5053 55.9061V46.6761C50.5053 37.6169 50.5053 37.446 50.1464 37.0016C49.719 36.4546 48.8644 36.4033 48.2662 36.8819L47.8559 37.2067L47.7705 58.8974C47.7021 75.7679 47.6337 80.6564 47.4799 80.947C46.8304 82.0751 45.104 82.4512 44.0443 81.6991C42.9503 80.9299 42.9845 81.3572 42.9845 70.076C42.9845 62.7774 42.9332 59.7007 42.7965 59.3931C42.3863 58.5042 40.8479 58.5042 40.4377 59.3931C40.301 59.7007 40.2497 62.7603 40.2497 69.9906C40.2497 81.2718 40.2668 81.0154 39.1557 81.6991C38.3011 82.2119 37.6516 82.2631 36.7799 81.8871C35.2415 81.2034 35.3953 83.4083 35.2928 58.8974L35.2073 37.2067L34.7971 36.8819C34.2843 36.4717 33.5664 36.4717 33.0536 36.8819L32.6434 37.2067L32.5921 46.5393L32.5579 55.872H31.0025C29.2591 55.872 28.4899 55.6327 27.6352 54.7951C26.5584 53.7525 26.5755 53.9576 26.5755 39.3946C26.5755 30.4038 26.6439 25.9939 26.7635 25.5324C27.0199 24.5752 27.6865 23.7547 28.5241 23.3787C29.1223 23.1052 29.6693 23.0539 32.4725 23.071H35.7201L38.1815 26.9169ZM10.3374 71.0332C12.8671 72.1442 14.0636 75.0329 13.1406 77.7848C12.7304 79.0497 11.2775 80.4855 9.91008 80.9983C7.2778 81.9726 4.28658 80.7077 3.09009 78.1096C2.56021 76.9473 2.5944 74.7252 3.15846 73.5629C4.4746 70.8794 7.55129 69.7854 10.3374 71.0332ZM76.8452 70.7597C79.0673 71.3067 80.7423 73.8193 80.5543 76.2807C80.2125 80.5539 75.512 82.7588 71.9396 80.2975C68.7774 78.1267 69.1535 72.9134 72.6233 71.1358C73.9565 70.4521 75.1872 70.3495 76.8452 70.7597Z" fill="#4988D1"/>
</svg>

<svg width="84" height="85" viewBox="0 0 84 85" fill="none" xmlns="http://www.w3.org/2000/svg"><path d="M39.242.252c-3.23.872-5.777 3.47-6.615 6.769-.376 1.419-.24 3.931.257 5.333.905 2.564 3.076 4.717 5.657 5.606 1.573.547 4.735.547 6.222 0 3.538-1.316 5.829-4.41 6.034-8.153.12-1.949-.137-3.145-.992-4.854C48.66 2.645 46.472.902 43.908.235c-1.23-.325-3.452-.308-4.666.017zm4.906 2.838c1.367.512 3.076 2.222 3.623 3.64.496 1.282.547 3.521.103 4.7a7.001 7.001 0 01-4.034 4.035c-1.077.41-3.265.41-4.41.017-1.812-.633-3.453-2.29-4.085-4.12-.444-1.264-.393-3.316.102-4.597.735-1.898 2.787-3.624 4.804-4.051 1.06-.223 2.734-.052 3.897.376z" fill="#4988D1"/><path d="M6.987.833c-5.52.787-8.58 6.564-6.136 11.555 2 4.085 7.076 5.709 11.059 3.538l.838-.461 5.726 5.726 5.709 5.709v13.435c0 14.631-.035 14.084.957 15.605l.444.667L19.191 63 12.8 69.392l-1.333-.632c-1.146-.547-1.522-.633-2.923-.718-1.932-.103-3.402.29-4.974 1.299-4.137 2.684-4.752 8.871-1.214 12.41 2.615 2.614 6.957 3.11 10.016 1.145 3.556-2.29 4.77-6.82 2.82-10.65l-.444-.87 6.564-6.547 6.546-6.564.838.256c.479.154 1.521.257 2.444.257h1.59V69.7c0 12.478-.051 12.033 1.401 13.606 1.06 1.162 2.222 1.692 3.727 1.692 1.35 0 2.17-.256 3.179-1.026l.77-.598.597.53c.923.803 1.71 1.077 3.145 1.094 1.077.017 1.436-.068 2.257-.462 1.145-.564 2.205-1.692 2.632-2.82.29-.735.325-1.71.376-11.965l.051-11.144h1.846c1.009 0 2.103-.086 2.41-.188l.547-.205 6.547 6.546 6.546 6.547-.324.53c-1.385 2.239-1.334 6.033.12 8.324 3.76 5.965 12.904 4.632 14.682-2.154 1.504-5.777-4.256-11.418-10.085-9.914-.547.154-1.367.479-1.829.718l-.837.462-6.444-6.444c-6.034-6.034-6.41-6.444-6.154-6.735.154-.17.445-.65.667-1.077l.41-.769.086-13.794.085-13.81 5.64-5.641 5.658-5.658 1.334.632c1.145.547 1.52.633 2.922.718 1.966.103 3.453-.307 5.026-1.35 5.657-3.777 4.136-12.683-2.462-14.443-2.034-.547-4.666-.154-6.392.94-3.555 2.29-4.77 6.82-2.82 10.649l.444.871-5.077 5.06-5.06 5.06-.358-.514c-1.094-1.52-2.53-2.41-4.325-2.666-1.623-.24-6.922-.188-7.435.068-.273.137-1.196 1.436-2.478 3.487-1.128 1.812-2.086 3.3-2.137 3.3-.051 0-.957-1.385-2.034-3.095-1.077-1.692-2.136-3.23-2.376-3.418-.393-.29-.718-.325-3.794-.325-1.846 0-3.795.085-4.342.188-1.299.274-2.581 1.077-3.436 2.154-.376.478-.718.889-.769.889-.051.017-2.359-2.257-5.11-5.009L14.713 13.5l.462-.838C18.303 6.918 13.465-.072 6.987.834zm2.786 2.838c1.18.393 2.154 1.128 2.77 2.068 2.375 3.59-.103 8.427-4.325 8.46-1.658 0-2.718-.426-3.88-1.555C2.8 11.124 2.304 9.243 2.902 7.21c.838-2.837 4.051-4.495 6.871-3.538zm67.79.307c3.658 1.778 4.051 7.094.684 9.316-3.59 2.393-8.427-.085-8.461-4.324 0-1.59.41-2.684 1.47-3.795 1.213-1.3 2.461-1.812 4.153-1.726.89.05 1.487.188 2.154.53zM38.181 26.917c1.47 2.307 2.616 3.931 2.855 4.034.855.393 1.094.154 3.726-3.966l2.53-3.931h3.18c3.469 0 4.101.137 4.939 1.043.94 1.025.906.564.906 15.417v13.743l-.393.752c-.222.41-.735.974-1.128 1.265-.684.478-.855.512-2.513.564l-1.778.068v-9.23c0-9.06 0-9.23-.359-9.674-.427-.547-1.282-.599-1.88-.12l-.41.325-.086 21.69c-.068 16.87-.136 21.76-.29 22.05-.65 1.128-2.376 1.504-3.436.752-1.094-.77-1.06-.342-1.06-11.623 0-7.299-.05-10.375-.188-10.683-.41-.889-1.948-.889-2.358 0-.137.308-.188 3.367-.188 10.598 0 11.28.017 11.024-1.094 11.708-.855.513-1.504.564-2.376.188-1.538-.684-1.385 1.521-1.487-22.99l-.086-21.69-.41-.325a1.389 1.389 0 00-1.743 0l-.41.325-.052 9.332-.034 9.333h-1.555c-1.744 0-2.513-.24-3.368-1.077-1.077-1.043-1.06-.837-1.06-15.4 0-8.991.069-13.401.189-13.863.256-.957.922-1.777 1.76-2.153.598-.274 1.145-.325 3.948-.308h3.248l2.462 3.846zM10.337 71.033c2.53 1.111 3.727 4 2.804 6.752-.41 1.265-1.864 2.7-3.23 3.213-2.633.975-5.624-.29-6.82-2.888-.53-1.163-.497-3.385.067-4.547 1.317-2.684 4.393-3.778 7.18-2.53zm66.508-.273c2.222.547 3.897 3.06 3.71 5.52-.343 4.274-5.043 6.479-8.615 4.017-3.163-2.17-2.787-7.384.683-9.161 1.334-.684 2.564-.786 4.222-.376z" fill="#4988D1"/></svg>
